X: 2254
T: O DEAR! WHAT CAN THE MATTER BE
Q: "Jig."
R: Jig.
%R: jig
B: James Kerr "Merry Melodies" v.2 p.28 #254
Z: 2016 John Chambers <jc:trillian.mit.edu>
M: 6/8
L: 1/8
K: G
|:\
d3 d3 | dBg dBG | c3 c3 | cAB cBA |\
d3 d3 | dBg dBG | EcB AGF |[1 G3- G3 :|[2 G3- G2d |]
|:\
dBc dBc | dBg dBG | cAB cAB | cAB cBA |\
dBc dBc | dBg dBG | EcB AGF | G3- G2d :|

%%sep 1 1 500
%%sep 1 1 500

